svg/crypto/monero_line.svg

<?xml version="1.0" encoding="UTF-8"?>
<svg width="24px" height="24px" viewBox="0 0 24 24" version="1.1" xmlns="http://www.w3.org/2000/svg" xmlns:xlink="http://www.w3.org/1999/xlink">
    <title>monero_line</title>
    <g id="Icon" stroke="none" stroke-width="1" fill="none" fill-rule="evenodd">
        <g id="Crypto" transform="translate(-720.000000, 0.000000)">
            <g id="monero_line" transform="translate(720.000000, 0.000000)">
                <path d="M24,0 L24,24 L0,24 L0,0 L24,0 Z M12.5935,23.2578 L12.5819,23.2595 L12.5109,23.295 L12.4919,23.2987 L12.4767,23.295 L12.4057,23.2595 C12.3958,23.2564 12.387,23.259 12.3821,23.2649 L12.378,23.2758 L12.3609,23.7031 L12.3659,23.7235 L12.3769,23.7357 L12.4805,23.8097 L12.4953,23.8136 L12.5071,23.8097 L12.6107,23.7357 L12.6233,23.7197 L12.6267,23.7031 L12.6096,23.2758 C12.6076,23.2657 12.601,23.2593 12.5935,23.2578 Z M12.8584,23.1453 L12.8445,23.1473 L12.6598,23.2397 L12.6499,23.2499 L12.6472,23.2611 L12.6651,23.6906 L12.6699,23.7034 L12.6784,23.7105 L12.8793,23.8032 C12.8914,23.8069 12.9022,23.803 12.9078,23.7952 L12.9118,23.7812 L12.8777,23.1665 C12.8753,23.1546 12.8674,23.147 12.8584,23.1453 Z M12.143,23.1473 C12.1332,23.1424 12.1222,23.1453 12.1156,23.1526 L12.1099,23.1665 L12.0758,23.7812 C12.0751,23.7927 12.0828,23.8019 12.0926,23.8046 L12.1083,23.8032 L12.3092,23.7105 L12.3186,23.7024 L12.3225,23.6906 L12.3404,23.2611 L12.3372,23.2485 L12.3278,23.2397 L12.143,23.1473 Z" id="MingCute" fill-rule="nonzero"></path>
                <path d="M12,4 C7.58172,4 4,7.58172 4,12 C4,12.6906 4.08751,13.3608 4.25204,14 L7,14 L7,8 C7,7.5526 7.29717,7.15965 7.72766,7.0378 C8.15814,6.91595 8.61718,7.09487 8.85166,7.4759 L12,12.592 L15.1483,7.4759 C15.3828,7.09487 15.8419,6.91595 16.2723,7.0378 C16.7028,7.15965 17,7.5526 17,8 L17,14 L19.748,14 C19.9125,13.3608 20,12.6906 20,12 C20,7.58172 16.4183,4 12,4 Z M18.9297,16 L16,16 C15.4477,16 15,15.5523 15,15 L15,11.533 L12.8517,15.0241 C12.6697,15.3198 12.3473,15.5 12,15.5 C11.6527,15.5 11.3303,15.3198 11.1483,15.0241 L9,11.533 L9,15 C9,15.5523 8.55228,16 8,16 L5.07026,16 C6.4535,18.3912 9.03887,20 12,20 C14.9611,20 17.5465,18.3912 18.9297,16 Z M2,12 C2,6.47715 6.47715,2 12,2 C17.5228,2 22,6.47715 22,12 C22,17.5228 17.5228,22 12,22 C6.47715,22 2,17.5228 2,12 Z" id="形状" fill="#09244B"></path>
            </g>
        </g>
    </g>
</svg>

<svg xmlns="http://www.w3.org/2000/svg" width="24" height="24"><g fill="none" fill-rule="evenodd"><path d="M24 0v24H0V0h24ZM12.594 23.258l-.012.002-.071.035-.02.004-.014-.004-.071-.036c-.01-.003-.019 0-.024.006l-.004.01-.017.428.005.02.01.013.104.074.015.004.012-.004.104-.074.012-.016.004-.017-.017-.427c-.002-.01-.009-.017-.016-.018Zm.264-.113-.014.002-.184.093-.01.01-.003.011.018.43.005.012.008.008.201.092c.012.004.023 0 .029-.008l.004-.014-.034-.614c-.003-.012-.01-.02-.02-.022Zm-.715.002a.023.023 0 0 0-.027.006l-.006.014-.034.614c0 .012.007.02.017.024l.015-.002.201-.093.01-.008.003-.011.018-.43-.003-.012-.01-.01-.184-.092Z"/><path fill="#09244B" d="M12 4a8 8 0 0 0-7.748 10H7V8a1 1 0 0 1 1.852-.524L12 12.592l3.148-5.116A1 1 0 0 1 17 8v6h2.748A8 8 0 0 0 12 4Zm6.93 12H16a1 1 0 0 1-1-1v-3.467l-2.148 3.491a1 1 0 0 1-1.704 0L9 11.533V15a1 1 0 0 1-1 1H5.07A7.997 7.997 0 0 0 12 20a7.997 7.997 0 0 0 6.93-4ZM2 12C2 6.477 6.477 2 12 2s10 4.477 10 10-4.477 10-10 10S2 17.523 2 12Z"/></g></svg>
